src/icons/svgs/16/message.svg

<svg width="16" height="16" viewBox="0 0 16 16" fill="none" xmlns="http://www.w3.org/2000/svg">
<path d="M14 3.4868V10.2517C14 11.0822 13.3262 11.7385 12.5001 11.7385H9.12519L6.19796 13.9458C6.0134 14.0813 5.74985 13.947 5.74985 13.7172V11.7385H3.49994C2.6738 11.7385 2 11.061 2 10.2517V3.4868C2 2.65622 2.6738 2 3.49994 2H12.4996C13.3461 2 14 2.67743 14 3.4868Z" fill="black"/>
</svg>

<svg width="16" height="16" viewBox="0 0 16 16" xmlns="http://www.w3.org/2000/svg">
    <path d="M14 3.487v6.765c0 .83-.674 1.486-1.5 1.486H9.125l-2.927 2.208a.283.283 0 0 1-.448-.229v-1.979H3.5c-.826 0-1.5-.677-1.5-1.486V3.487C2 2.657 2.674 2 3.5 2h9c.846 0 1.5.677 1.5 1.487Z"/>
</svg>
